X: 18
T:Austin Tierneys
M:4/4
L:1/8
S:Unknown fiddler
R:Reel
N:As played
D:From a recording? 197?
Z:Bernie Stocks
K:D
D3B {d}BAFB | Ad~d2 fded | D2(3FED ADFA | BdAF EB,B,2 | D3B {d}BAFB |
Ad~d2 defg | afge fdec |1 dBAF EB,B,2 :|2 dBAF Egfe ||
d3B AF~F2 | dFAF BFAF | d3B AFDF | (3.B.c.B AF GFEF | Dddc BcdB |
(3.B.c.B GB ABde |1 afge fdec | dBAF EB,B,2 :|2 faec dBAF | BdAF EGFE ||
<end>
<start>
